desc:sd_algo_iirf

// https://www.youtube.com/watch?v=HexzW0EZal8
// Inifinite Impulse Response filter (IIRF)

@sample
average = (spl0 + previous) / 2;
previous = spl0;
spl0 = spl1 = average;

// stereo

// @sample
// currAvgL = (spl0 + previousL) / 2;
// currAvgR = (spl1 + previousR) / 2;
// previousL = spl0;
// previousR = spl1;
// spl0 = currAvgL;
// spl1 = currAvgR;