desc:sd_sinewave

// https://wiki.cockos.com/wiki/index.php/1st_Ever_Jesusonic_Tutorial

slider1: freq=80<0,440,1>Frequency [Hz]
slider2: volDb=-9<-72,0,0.1>Volume [dB]

@slider
vol = 10 ^ (volDb / 20);

@sample
// t = count variable in s
spl0 = sin(2 * $pi * freq * t) * vol;
t += 1 / srate;
spl1 = spl0;
