desc:sd_empty

// Does nothing. Only exists to measure JSFX environment overhead.

slider1:someSlider=0<1,2,1>Useless slider

@init
someVariable

@slider
// Do nothing

@sample
spl0 = spl0;
spl1 = spl1;