desc:sd_volume

slider1:volume=0 < -150 , 18 , 0.1 >Volume [dB]

@slider
// convert from dB to amplitude
volume > -149.9 ? target = 10 ^ ( volume / 20 ) : target = 0;

@sample
spl0 *= target;
spl1 *= target;